packages/icons/src/components/Icon/assets/small-outline/sun.svg

<svg width="16" height="16" viewBox="0 0 16 16" fill="none" xmlns="http://www.w3.org/2000/svg">
<path fill-rule="evenodd" clip-rule="evenodd" d="M8 1C8.36244 1 8.65625 1.29381 8.65625 1.65625V3.24219C8.65625 3.60462 8.36244 3.89844 8 3.89844C7.63756 3.89844 7.34375 3.60462 7.34375 3.24219V1.65625C7.34375 1.29381 7.63756 1 8 1ZM3.05025 3.05025C3.30653 2.79397 3.72205 2.79397 3.97833 3.05025L5.09976 4.17168C5.35604 4.42796 5.35604 4.84348 5.09976 5.09976C4.84348 5.35604 4.42796 5.35604 4.17168 5.09976L3.05025 3.97833C2.79397 3.72205 2.79397 3.30653 3.05025 3.05025ZM12.9497 3.05025C13.206 3.30653 13.206 3.72205 12.9497 3.97833L11.8283 5.09976C11.572 5.35604 11.1565 5.35604 10.9002 5.09976C10.644 4.84348 10.644 4.42796 10.9002 4.17168L12.0217 3.05025C12.278 2.79397 12.6935 2.79397 12.9497 3.05025ZM8 6.01302C6.90262 6.01302 6.01302 6.90262 6.01302 8C6.01302 9.09738 6.90262 9.98698 8 9.98698C9.09738 9.98698 9.98698 9.09738 9.98698 8C9.98698 6.90262 9.09738 6.01302 8 6.01302ZM4.70052 8C4.70052 6.17775 6.17775 4.70052 8 4.70052C9.82225 4.70052 11.2995 6.17775 11.2995 8C11.2995 9.82225 9.82225 11.2995 8 11.2995C6.17775 11.2995 4.70052 9.82225 4.70052 8ZM1 8C1 7.63756 1.29381 7.34375 1.65625 7.34375H3.24219C3.60462 7.34375 3.89844 7.63756 3.89844 8C3.89844 8.36244 3.60462 8.65625 3.24219 8.65625H1.65625C1.29381 8.65625 1 8.36244 1 8ZM12.1016 8C12.1016 7.63756 12.3954 7.34375 12.7578 7.34375H14.3438C14.7062 7.34375 15 7.63756 15 8C15 8.36244 14.7062 8.65625 14.3438 8.65625H12.7578C12.3954 8.65625 12.1016 8.36244 12.1016 8ZM5.09976 10.9002C5.35604 11.1565 5.35604 11.572 5.09976 11.8283L3.97833 12.9497C3.72205 13.206 3.30653 13.206 3.05025 12.9497C2.79397 12.6935 2.79397 12.278 3.05025 12.0217L4.17168 10.9002C4.42796 10.644 4.84348 10.644 5.09976 10.9002ZM10.9002 10.9002C11.1565 10.644 11.572 10.644 11.8283 10.9002L12.9497 12.0217C13.206 12.278 13.206 12.6935 12.9497 12.9497C12.6935 13.206 12.278 13.206 12.0217 12.9497L10.9002 11.8283C10.644 11.572 10.644 11.1565 10.9002 10.9002ZM8 12.1016C8.36244 12.1016 8.65625 12.3954 8.65625 12.7578V14.3438C8.65625 14.7062 8.36244 15 8 15C7.63756 15 7.34375 14.7062 7.34375 14.3438V12.7578C7.34375 12.3954 7.63756 12.1016 8 12.1016Z" fill="black"/>
</svg>

<svg xmlns="http://www.w3.org/2000/svg" width="16" height="16" fill="none" viewBox="0 0 16 16">
    <path d="M8 1c.362 0 .656.294.656.656v1.586a.656.656 0 0 1-1.312 0V1.656C7.344 1.294 7.638 1 8 1M3.05 3.05a.656.656 0 0 1 .928 0L5.1 4.172a.656.656 0 0 1-.928.928L3.05 3.978a.656.656 0 0 1 0-.928m9.9 0a.656.656 0 0 1 0 .928L11.828 5.1a.656.656 0 0 1-.928-.928l1.122-1.122a.656.656 0 0 1 .928 0M8 6.013a1.987 1.987 0 1 0 0 3.974 1.987 1.987 0 0 0 0-3.974M4.7 8a3.3 3.3 0 1 1 6.6 0 3.3 3.3 0 0 1-6.6 0M1 8c0-.362.294-.656.656-.656h1.586a.656.656 0 0 1 0 1.312H1.656A.656.656 0 0 1 1 8m11.102 0c0-.362.293-.656.656-.656h1.586a.656.656 0 0 1 0 1.312h-1.586A.656.656 0 0 1 12.102 8M5.1 10.9a.656.656 0 0 1 0 .928L3.978 12.95a.656.656 0 1 1-.928-.928L4.172 10.9a.656.656 0 0 1 .928 0m5.8 0a.656.656 0 0 1 .928 0l1.122 1.122a.656.656 0 1 1-.928.928L10.9 11.828a.656.656 0 0 1 0-.928M8 12.102c.362 0 .656.293.656.656v1.586a.656.656 0 0 1-1.312 0v-1.586c0-.363.294-.656.656-.656" clip-rule="evenodd"/>
</svg>
